packages/icons/svg/Fill/archive.svg

<svg fill="none" height="24" viewBox="0 0 24 24" width="24" xmlns="http://www.w3.org/2000/svg"><path clip-rule="evenodd" d="m18 7.00006h-11.99998c-.551 0-1-.449-1-1 0-.55099.449-.99999 1-.99999h11.99998c.552 0 1 .449 1 .99999 0 .551-.448 1-1 1zm-3 6.13394c0 .476-.39.866-.866.866h-4.268c-.476 0-.866-.39-.866-.866v-.268c0-.476.39-.866.866-.866h4.268c.476 0 .866.39.866.866zm3-10.134h-12c-1.654 0-3 1.346-3 3 0 .883.391 1.67 1 2.22v9.78c0 1.654 1.346 3 3 3h10c1.654 0 3-1.346 3-3v-9.78c.609-.55 1-1.337 1-2.22 0-1.654-1.346-3-3-3z" fill="#6b7280" fill-rule="evenodd"/></svg>

<svg width="24" height="24" viewBox="0 0 24 24" fill="none" xmlns="http://www.w3.org/2000/svg">
<g id="Icon/Fill/archive">
<path id="Mask" fill-rule="evenodd" clip-rule="evenodd" d="M18 7H6C5.449 7 5 6.551 5 6C5 5.449 5.449 5 6 5H18C18.552 5 19 5.449 19 6C19 6.551 18.552 7 18 7ZM15 13.134C15 13.61 14.61 14 14.134 14H9.866C9.39 14 9 13.61 9 13.134V12.866C9 12.39 9.39 12 9.866 12H14.134C14.61 12 15 12.39 15 12.866V13.134ZM18 3H6C4.346 3 3 4.346 3 6C3 6.883 3.391 7.67 4 8.22V18C4 19.654 5.346 21 7 21H17C18.654 21 20 19.654 20 18V8.22C20.609 7.67 21 6.883 21 6C21 4.346 19.654 3 18 3Z" fill="#000000"/>
</g>
</svg>
